src/assets/favicon 2.svg

<svg enable-background="new 0 0 16 16" viewBox="0 0 16 16" xmlns="http://www.w3.org/2000/svg" xmlns:xlink="http://www.w3.org/1999/xlink"><clipPath id="a"><path d="m16 4.7c0-.7-.1-1.1-.1-1.1s-2.4-1.5-7.8-1.5h-.2c-5.4 0-7.8 1.5-7.8 1.5s-.1.4-.1 1.1c0 1.2.3 3.3 1.8 5.7.3.5.7 1 1.1 1.5 2.4 2.7 5.1 3.4 5.1 3.4s0 0 0 0 2.7-.8 5.1-3.5c.4-.4.8-.9 1.1-1.5 1.5-2.3 1.8-4.4 1.8-5.6z"/></clipPath><path clip-rule="evenodd" d="m16 4.7c0-.7-.1-1.1-.1-1.1s-2.4-1.5-7.8-1.5h-.2c-5.4 0-7.8 1.5-7.8 1.5s-.1.4-.1 1.1c0 1.2.3 3.3 1.8 5.7.3.5.7 1 1.1 1.5 2.4 2.7 5.1 3.4 5.1 3.4s0 0 0 0 2.7-.8 5.1-3.5c.4-.4.8-.9 1.1-1.5 1.5-2.3 1.8-4.4 1.8-5.6z" fill="#3c5275" fill-rule="evenodd"/><g clip-path="url(#a)" opacity=".21"><image height="309" overflow="visible" transform="matrix(.05791145 0 0 .04974815 .1277 2.6723)" width="316" xlink:href="92566EEEC544073E.png"/></g><path d="m14.5 5.8c-.1 0-3-.4-3-.4v-.3l-.1-.4.3.3v.2c0 .1 2.6.4 2.6.4l.2-.2s-1.8-.2-2.5-.3c-.1 0-.2-.1-.2-.1l-.5-.5s-1-.4-1.8-.5c-.6 0-1.4.1-1.5.2 0 .1-.6 1.1-.6 1.1l-.2.8v-.8s.2-.5.3-.5c-1.4 1.3-5.4 3.8-5.4 3.8s-.5.4-.6.3c.2.9 2 3.3 4.6 4.8.1-.1.3-.5.3-.5l.1-.9-.5-.9-1.4-.4-1.2.2 1.2-.5 1.7.3s.3.6.4.6c.8-1.2 1.8-2.5 1.8-2.5l-.9-.7v-1.6l.7-1.2-.5 1.1.2 1.6.7.5.4.1.7-.5.2-.7v-.4l.1-1.2c0 .3.2 1.2.1 1.4.4-.3.9-.4 1.4-.4-.1-.1-.2-.1-.3-.1s-.3 0-.3 0l-.2.1s.1-.1.1-.2c.2 0 .5 0 .6.1s.2.2.2.2 1.1.1 1.5.1c.2 0 .4-.1.6-.2.1-.1.4-.4.4-.6.2-.1.4-.5.3-.7zm-8.7 5-.7-.1 2.4-2.1.2.2zm5.3-5.5-.7-.1.2-.1.4-.1h.1c.1.2 0 .3 0 .3z" fill="#fff"/></svg>

<?xml version="1.0" encoding="utf-8"?>
<!-- Generator: Adobe Illustrator 24.0.3, SVG Export Plug-In . SVG Version: 6.00 Build 0)  -->
<svg version="1.1" id="Layer_1" xmlns="http://www.w3.org/2000/svg" xmlns:xlink="http://www.w3.org/1999/xlink" x="0px" y="0px"
	 viewBox="0 0 16 16" style="enable-background:new 0 0 16 16;" xml:space="preserve">
<style type="text/css">
	.st0{display:none;}
	.st1{fill-rule:evenodd;clip-rule:evenodd;fill:#3C5275;}
	.st2{opacity:0.21;clip-path:url(#SVGID_3_);}
	.st3{fill:#FFFFFF;}
</style>
<g id="לוגו_מקורי" class="st0">
</g>
<g id="טקסט" class="st0">
</g>
<g id="מגן" class="st0">
</g>
<g id="כלב_בסיס" class="st0">
</g>
<g id="כלב">
	<g>
		<g>
			<g>
				<path id="SVGID_1_" class="st1" d="M16,4.7c0-0.7-0.1-1.1-0.1-1.1s-2.4-1.5-7.8-1.5c0,0-0.2,0-0.2,0c-5.4,0-7.8,1.5-7.8,1.5
					S0,4,0,4.7C0,5.9,0.3,8,1.8,10.4c0.3,0.5,0.7,1,1.1,1.5C5.3,14.6,8,15.3,8,15.3s0,0,0,0c0,0,0,0,0,0s2.7-0.8,5.1-3.5
					c0.4-0.4,0.8-0.9,1.1-1.5C15.7,8,16,5.9,16,4.7z"/>
			</g>
			<g>
				<defs>
					<path id="SVGID_2_" d="M16,4.7c0-0.7-0.1-1.1-0.1-1.1s-2.4-1.5-7.8-1.5c0,0-0.2,0-0.2,0c-5.4,0-7.8,1.5-7.8,1.5S0,4,0,4.7
						C0,5.9,0.3,8,1.8,10.4c0.3,0.5,0.7,1,1.1,1.5C5.3,14.6,8,15.3,8,15.3s0,0,0,0c0,0,0,0,0,0s2.7-0.8,5.1-3.5
						c0.4-0.4,0.8-0.9,1.1-1.5C15.7,8,16,5.9,16,4.7z"/>
				</defs>
				<clipPath id="SVGID_3_">
					<use xlink:href="#SVGID_2_"  style="overflow:visible;"/>
				</clipPath>
				<g class="st2">
					
						<image style="overflow:visible;enable-background:new    ;" width="316" height="309" xlink:href="92566EEEC544073E.png"  transform="matrix(5.791145e-02 0 0 4.974815e-02 0.1277 2.6723)">
					</image>
				</g>
			</g>
		</g>
		<path class="st3" d="M14.5,5.8c-0.1,0-3-0.4-3-0.4V5.1l0,0l0,0v0l0,0l-0.1-0.4l0.3,0.3c0,0,0,0.1,0,0.2c0,0.1,2.6,0.4,2.6,0.4
			l0.2-0.2c0,0-1.8-0.2-2.5-0.3c-0.1,0-0.2-0.1-0.2-0.1l-0.5-0.5c0,0-1-0.4-1.8-0.5C8.9,4,8.1,4.1,8,4.2C8,4.3,7.4,5.3,7.4,5.3
			L7.2,6.1l0-0.8c0,0,0.2-0.5,0.3-0.5C6.1,6.1,2.1,8.6,2.1,8.6S1.6,9,1.5,8.9c0.2,0.9,2,3.3,4.6,4.8c0.1-0.1,0.3-0.5,0.3-0.5
			l0.1-0.9l-0.5-0.9L4.6,11l-1.2,0.2l1.2-0.5l0,0L6.3,11c0,0,0.3,0.6,0.4,0.6c0.8-1.2,1.8-2.5,1.8-2.5L7.6,8.4l0-1.6l0.7-1.2
			L7.8,6.7l0.2,1.6l0.7,0.5l0.4,0.1l0.7-0.5L10,7.7l0-0.4l0.1-1.2c0,0.3,0.2,1.2,0.1,1.4c0.4-0.3,0.9-0.4,1.4-0.4
			C11.5,7,11.4,7,11.3,7c-0.1,0-0.3,0-0.3,0l-0.2,0.1c0,0,0.1-0.1,0.1-0.2c0.2,0,0.5,0,0.6,0.1c0.1,0.1,0.2,0.2,0.2,0.2
			s1.1,0.1,1.5,0.1c0.2,0,0.4-0.1,0.6-0.2c0.1-0.1,0.4-0.4,0.4-0.6C14.4,6.4,14.6,6,14.5,5.8z M5.8,10.8l-0.7-0.1l2.4-2.1l0,0
			l0.2,0.2L5.8,10.8z M11.1,5.3l-0.7-0.1l0.2-0.1l0.4-0.1l0.1,0l0,0C11.2,5.2,11.1,5.3,11.1,5.3z"/>
	</g>
</g>
</svg>
